X:294
T:Shalom shaverim
C:anon.
O:Israel
F:http://abc.musicaviva.com/tunes/israel/shalom-shaverim.abc
M:C
L:1/4
K:Em
B,|EE/F/GE|GG/A/BB|e3d|B3B|eB/A/GA|BG/F/EB,|E3F/G/|G3|]
W:
W:Shalom shaverim
W:shalom shaverim
W:shalom shalom
W:l'hit raot
W:l'hit raot
W:shalom shalom
W:
W:
W:  From Musica Viva - http://www.musicaviva.com
W:  the Internet center for free sheet music downloads.

